X: 1374
T: the Dublin Reel
R: reel
O: Delaney
B: O'Neill's 1850 #1374
Z: Trish O'Neil
Z: Compacted via repeats and multiple endings [JC]
M: C|
L: 1/8
K: D
|: dF (3({G}FEF) dfec | dF (3({G}FEF) AFEF | dF (3({G}FEF) dfed |1 cABG AFEA :|2 cABc ABcd |] e2(3(cBA) EAcf |
| (3(efe) dA BF (3({G}FEF) | e2(3(cBA) EAcA | (3(Bcd) cA BG (3({G}FEF) || e2(3(cBA) ecfc | eAcA BF (3({G}FEF) | d3c dfed |
| cABG AFEA |: d3c dAFA | dcdB AFEA |1 d2(dc) dfed | cABc AFEA :|2 {e}dcdf e2(ae) | fdBc dfec |]
